X: 8915
T: Curlews, The
R: jig
M: 6/8
K: Bminor
fBB ~F3|~f3 ~a3|fed cAA|~E3 afe|
fBB ~F3|~f3 ~a3|~g3 f2e|dBA ~B3:|
|:~d3 BFF|~D3 Bdf|ecB AEE|~C3 ABc|
~d3 BFF|~D3 Bdf|~e3 fec|dBA ~B3:|

